X: 283
T: 284. Herr Jesu Christ, wahr Mensch und Gott
N: Derived from chor284.krn
C: Johann Sebastian Bach
%%abc-version 2.0
%%abcx-abcm2ps-target-version 5.9.1 (29 Sep 2008)
%%abc-creator hum2abc beta
%%abcx-conversion-date 2019/03/11 17:28:19
%%abc-edited-by Craig Stuart Sapp
%%humdrum-veritas 2687675939
%%humdrum-veritas-data 3067027907
%%
%%barnumbers 0
L: 1/4
M: C
%%staves [1 2 3 4]
V: 1 clef=treble
V: 2 clef=treble
V: 3 clef=treble-8
V: 4 clef=bass
K: F
[V:1] f [I:setbarnb 1]| 
[V:2] A | 
[V:3] c | 
[V:4] F,/G,/ | 
[V:1] ffec | 
[V:2] AAGA/G/ | 
[V:3] cc/d/ef/e/ | 
[V:4] A,G,/F,/ C/B,/A, | 
[V:1] de!fermata!ff | 
[V:2] FG!fermata!AA | 
[V:3] d/c/B!fermata!cd/c/ | 
[V:4] B,/A,/G,!fermata!F,D, | 
[V:1] edcB | 
[V:2] G/F/ F/G/ G/A/ D/E/ | 
[V:3] B/c/de/d/ d/^c/ | 
[V:4] G,/A,/B,E,/^F,/G, | 
[V:1] AG!fermata!AA | 
[V:2] FE/D/!fermata!^CD | 
[V:3] d/A/B!fermata!E=F | 
[V:4] D,/=C,/B,,!fermata!A,,D, | 
[V:1] GA/=B/cd | 
[V:2] D/=C/CC/F/F | 
[V:3] GFE/A/ A/G/ | 
[V:4] E,F,/G,/A,=B, | 
[V:1] c=B!fermata!cc | 
[V:2] F/E/D!fermata!EF | 
[V:3] GG!fermata!GA | 
[V:4] CG,!fermata!C,F, | 
[V:1] defe | 
[V:2] FBA/G/G | 
[V:3] BBc/d/e | 
[V:4] B,A,/G,/ A,/=B,/C | 
[V:1] dd!fermata!cc | 
[V:2] ^F^G!fermata!AA | 
[V:3] A/=B//c// d/e/!fermata!ee | 
[V:4] C/=B,//A,// B,/E,/!fermata!A,A,, | 
[V:1] _BAdc | 
[V:2] A/=G/ G/=F/ F/_E/ E/D/ | 
[V:3] f/c/cB^F | 
[V:4] D,/E,/=F,B,,/C,/D, | 
[V:1] BA!fermata!GG | 
[V:2] D/=E/=F!fermata!EE | 
[V:3] Gc!fermata!cc | 
[V:4] G,,A,,/B,,/!fermata!C,C | 
[V:1] A=Bcd | 
[V:2] _E/D/DEF | 
[V:3] cGG_A/G/ | 
[V:4] ^F,=F,_E,=B,, | 
[V:1] c=B!fermata!c |]  
[V:2] F/_E/D!fermata!=E |]  
[V:3] GG!fermata!G |]  
[V:4] C,G,,!fermata!C, |]  



